!!!COM: Richard Strauss
!!!CNT: Deutscher
!!!TXO: Deutsche 
!!!OTL: Nur Mut!
!!!OPS: Opus 17
!!!ONM: No. 5
!!!LYR: A. F. von Schack
!!!ENC: Brian Bice
!!!YOR: Lieder, Complete Edition, vol. 1
!!!ODT: 1887/
!!NB: Vocal melody and text only encoded.
**kern	**silbe
*clefG2	*
*k[b-e-a-]	*
*M4/4	*
=6	=6
{8.g	{Lass'
16g	das
[2b-	Za-
8b-]	|
8f	-gen,
=7	=7
4r	.
2b-	tra-
4b-	-ge
=8	=8
8ee-	mu-
8ff}	-tig}
{8gg	{dei-
8ee-	-ne
4.b-	Sor-
8g	-gen,
=9	=9
8r	.
4b-	dei-
8f	-ne
2a-}	Qual,}
=10	=10
{4.f	{sei
8f	die
4.b-	Wun-
8cc	-de
=11	=11
4.ff	noch
8ff	so
4ff	blu-
4ee-}	-tig,}
=12	=12
4r	.
{[4ff-	{hei-
8ff-]	|
8cc-	-len
8a-	wird
8f-	sie
=13	=13
(4f-	doch
4e-	|
4b-)	|
4dn	ein-
=14	=14
2e-}	-mal.}
2r	.
=17	=17
2r	.
4r	.
{8d	{Un-
8d	-ter
=18	=18
2.g	tie-
4g	-fer
=19	=19
4.a-	Wi-
8g	-ses-
4cc	-de-
4e-}	-cke}
=20	=20
{(4g	{tra2umt
8an)	|
8bn	die
4.cc	jun-
8cc	-ge
=21	=21
[2dd	Knos-
8dd]	|
8ee-	-pe
4ee-}	schon,}
=22	=22
4r	.
{8dd#	{dass
8dd#	der
4.een	Fru2h-
8dd#	-ling
=23	=23
4r	.
8cc#	sie
8dd#	er-
[2ff#	-we-
=24	=24
8ff#]	|
8een}	-cke}
{8dd#	{mit
8ff#	der
([2aan	Lie-
=25	=25
8aan]	|
8g)	|
(8ff#	-der
8ee)	|
4.ddn	hol-
8cc	-dem
=26	=26
2bn}	Ton.}
4r	.
{8bn	{Nur
8bn	em-
=27	=27
4.bn	-por
8een	den
4.een	Blick
8ff#	ge-
=28	=28
(8ff#	-wen-
8gg)	|
4gg}	-det.}
4r	.
{8g	{und
8an	durch
=29	=29
(2bn	du2-
4een)	|
4ee-	-stres
=30	=30
4.dd	Wol-
8bn	-ken-
4g}	-grau}
{8b-	{bricht
8cc	zu-
=31	=31
[2dd	-letzt,
8dd]	|
8dd	dass
8dd	es
8een	dich
=32	=32
(4.een	blen-
8ff)	|
4.ff}	-det,}
8r	.
=33	=33
{2aa-	{glor-
4aa-	-reich
8gg	noch
8ff	des
=34	=34
2.bb-	Him-
4f	-mels
=35	=35
2gg}	Blau.}
2r	.
=36	=36
2r	.
{8b-	{A-
8b-	-ber
8b-	auch
8b-	die
=37	=37
8ee-	tru2-
8ff	-ben
8gg	Stun-
8ee-}	-den}
8r	.
{4b-	{und
8g	die
=38	=38
8cc	Tra2-
8b-	-nen,
8g	die
8f	du
2a-	weinst,
=39	=39
4f}	glaub',}
8r	.
{8f	{wie
4.b-	Freu-
8cc	-den,
=40	=40
8r	.
4ff	die
8ff	ent-
4ff	-schwun-
4ee-}	-den,}
=41	=41
4r	.
{([4ff-	{su2ss
8ff-]	|
8cc-)	|
(8a-	er-
8g-)	|
=42	=42
8f-	-schein-
8a-	-en
8f-	sie
8e-	dir
4d	einst,
8b-	und
8b-	mit
=43	=43
2.b-	Weh-
4b-	-mut,
=44	=44
4.ee-}	halb}
{8f	{nur
4b-	hei-
4b-	-ter,
=45	=45
[2g	schei-
8g]	|
8ff	-dest
8ee-	du
8gg	fu2r
=46	=46
4.dd	im-
8b-	-mer-
4an	-dar
8an	von
8an	dem
=47	=47
2.dd	Lei-
4an}	-den}
=48	=48
8r	.
{4an	{dem
8dd	Be-
(8ff	-glei-
8een)	|
(8cc#	-ter,
8b)	|
=49	=49
4.an	der
8g	so
(8f	lan-
4an)	|
8dd	-ge
=50	=50
4.dd	treu
8g	dir
4g}	war,}
{8bn	{der
8dd	so
=51	=51
2ff	lan-
4.ee-	-ge,
8g	so
=52	=52
(2dd-	lan-
4cc)	|
4cc-	-ge
=53	=53
(2ee-	treu
4g)	|
4b-	dir
=54	=54
2e-}	war.}
2r	.
*-	*-
